symbols/web/local_pizza/materialsymbolsrounded/local_pizza_wght500fill1_40px.svg

<svg xmlns="http://www.w3.org/2000/svg" height="40" width="40"><path d="M20 34.625q-.75 0-1.458-.354-.709-.354-1.167-1.063L4.708 14.083q-.75-1.083-.52-2.437.229-1.354 1.27-2.063 3.25-2.25 6.938-3.562Q16.083 4.708 20 4.708q3.917 0 7.604 1.292 3.688 1.292 6.938 3.583 1.041.709 1.27 2.063.23 1.354-.52 2.437L22.625 33.208q-.458.709-1.167 1.063-.708.354-1.458.354Zm-4.542-18q1 0 1.709-.708.708-.709.708-1.709 0-1.041-.708-1.75-.709-.708-1.709-.708-1.041 0-1.729.708-.687.709-.687 1.75 0 1 .708 1.709.708.708 1.708.708ZM20 25.208q1 0 1.708-.708.709-.708.709-1.708t-.709-1.709Q21 20.375 20 20.375t-1.708.708q-.709.709-.709 1.709 0 1.041.709 1.729.708.687 1.708.687Z"/></svg>

<svg xmlns="http://www.w3.org/2000/svg" height="40" width="40"><path d="M20 34.625Q19.25 34.625 18.542 34.271Q17.833 33.917 17.375 33.208L4.708 14.083Q3.958 13 4.188 11.646Q4.417 10.292 5.458 9.583Q8.708 7.333 12.396 6.021Q16.083 4.708 20 4.708Q23.917 4.708 27.604 6Q31.292 7.292 34.542 9.583Q35.583 10.292 35.812 11.646Q36.042 13 35.292 14.083L22.625 33.208Q22.167 33.917 21.458 34.271Q20.75 34.625 20 34.625ZM15.458 16.625Q16.458 16.625 17.167 15.917Q17.875 15.208 17.875 14.208Q17.875 13.167 17.167 12.458Q16.458 11.75 15.458 11.75Q14.417 11.75 13.729 12.458Q13.042 13.167 13.042 14.208Q13.042 15.208 13.75 15.917Q14.458 16.625 15.458 16.625ZM20 25.208Q21 25.208 21.708 24.5Q22.417 23.792 22.417 22.792Q22.417 21.792 21.708 21.083Q21 20.375 20 20.375Q19 20.375 18.292 21.083Q17.583 21.792 17.583 22.792Q17.583 23.833 18.292 24.521Q19 25.208 20 25.208Z"/></svg>
